icons/nodes_pow.svg

<?xml version="1.0" encoding="UTF-8" standalone="no"?>
<svg
   width="32"
   height="32"
   viewBox="0 0 32 32"
   version="1.1"
   xml:space="preserve"
   style="clip-rule:evenodd;fill-rule:evenodd"
   id="svg2995"
   sodipodi:docname="nodes_pow.svg"
   inkscape:version="1.1.2 (b8e25be833, 2022-02-05)"
   xmlns:inkscape="http://www.inkscape.org/namespaces/inkscape"
   xmlns:sodipodi="http://sodipodi.sourceforge.net/DTD/sodipodi-0.dtd"
   xmlns="http://www.w3.org/2000/svg"
   xmlns:svg="http://www.w3.org/2000/svg"><defs
   id="defs2999" /><sodipodi:namedview
   id="namedview2997"
   pagecolor="#ffffff"
   bordercolor="#666666"
   borderopacity="1.0"
   inkscape:pageshadow="2"
   inkscape:pageopacity="0.0"
   inkscape:pagecheckerboard="0"
   showgrid="false"
   inkscape:zoom="12.625"
   inkscape:cx="31.960396"
   inkscape:cy="25.70297"
   inkscape:window-width="1920"
   inkscape:window-height="1001"
   inkscape:window-x="-9"
   inkscape:window-y="-9"
   inkscape:window-maximized="1"
   inkscape:current-layer="svg2995" />
    <g
   transform="matrix(1.3362015,0,0,1.222664,-65.677974,-27.828618)"
   id="g2993">
        <g
   id="g2991">
            <path
   id="path3057"
   d="m 53.507,27.518 3.68,-0.88 v 19.08 h -3.24 c -1.84,0 -2.68,0.08 -2.68,1.36 0,0.92 0.52,1.4 1.56,1.4 h 11.68 c 1.04,0 1.56,-0.48 1.56,-1.4 0,-1.28 -0.84,-1.36 -2.68,-1.36 h -3.12 v -21.12 c 0,-0.8 -0.32,-1.28 -0.8,-1.28 -0.24,0 -0.52,0.04 -0.84,0.12 l -5.8,1.56 c -0.84,0.24 -1.28,0.72 -1.28,1.36 0,0.72 0.52,1.24 1.36,1.24 0.2,0 0.4,-0.04 0.6,-0.08 z"
   style="fill:#d3d7cf;fill-rule:nonzero;stroke:#2e3436;stroke-width:0.91px" />
            <g
   transform="matrix(0.0824132,0,0,0.0900661,51.9145,9.81238)"
   id="g2989">
                <path
   d="m 188.869,189.256 24.78,36.773 c 4.108,6.096 7.034,9.795 8.779,11.098 1.745,1.303 3.809,2.087 6.194,2.352 v 2.452 h -43.795 v -2.452 c 3.49,-0.265 5.742,-0.795 6.759,-1.59 1.015,-0.795 1.523,-1.767 1.523,-2.916 0,-0.795 -0.154,-1.501 -0.464,-2.119 -0.618,-1.325 -2.164,-3.799 -4.638,-7.421 l -13.119,-19.414 -13.714,16.764 c -4.108,5.079 -6.163,8.525 -6.163,10.336 0,1.28 0.531,2.474 1.591,3.577 1.06,1.105 2.628,1.9 4.704,2.385 0.927,0.266 2.827,0.398 5.698,0.398 v 2.452 h -34.52 v -2.452 c 3.931,-0.574 7.024,-1.634 9.277,-3.18 2.959,-2.032 7.089,-6.273 12.389,-12.721 l 17.823,-21.732 -22.858,-33.592 c -3.755,-5.522 -5.897,-8.592 -6.427,-9.21 -1.193,-1.458 -2.363,-2.496 -3.512,-3.114 -1.149,-0.619 -2.739,-1.083 -4.77,-1.391 v -2.452 h 44.59 v 2.452 h -2.252 c -2.562,0 -4.351,0.408 -5.367,1.225 -1.016,0.817 -1.524,1.844 -1.524,3.081 0,0.972 0.154,1.811 0.464,2.517 l 4.571,6.892 11.131,16.961 9.476,-11.595 c 4.859,-5.963 7.288,-10.137 7.288,-12.522 0,-1.193 -0.343,-2.298 -1.027,-3.313 -0.685,-1.016 -1.668,-1.811 -2.949,-2.385 -1.281,-0.575 -3.268,-0.861 -5.963,-0.861 v -2.452 h 33.062 v 2.452 c -2.606,0.044 -4.705,0.363 -6.295,0.96 -1.59,0.597 -3.29,1.711 -5.101,3.346 -1.149,1.06 -4.019,4.351 -8.613,9.872 z"
   style="fill:#767c71;fill-rule:nonzero"
   id="path2983" />
                <path
   d="m 169.505,198.834 -39.768,-48.508 18.618,0.449 64.536,93.685 -31.943,0.082 4.751,-11.674 -9.287,-23.065 -17.619,23.349 10.961,4.891 0.207,6.607 -39.127,-0.172 0.426,-6.463 11.367,-6.684 z m 28.993,-36.449 -7.832,-5.972 -0.156,-6.696 38.09,-0.023 -1.168,6.407 -7.879,3.544 -29.971,30.605 -5.669,-8.195 z"
   style="fill:#d3d7cf"
   id="path2985" />
                <path
   d="m 185.921,147.467 c 1.492,-2.233 4.036,-3.703 6.923,-3.703 h 33.062 c 4.597,0 8.323,3.727 8.323,8.323 v 2.452 c 0,4.541 -3.641,8.245 -8.182,8.321 -1.449,0.024 -2.629,0.1 -3.513,0.432 -0.77,0.289 -1.535,0.91 -2.436,1.722 -1.087,1.025 -3.665,4.053 -7.799,9.022 l -13.047,15.737 21.298,31.605 c 3.304,4.901 5.454,8.032 6.858,9.081 0.595,0.444 1.32,0.658 2.134,0.748 4.215,0.468 7.404,4.031 7.404,8.272 v 2.452 c 0,4.596 -3.727,8.322 -8.324,8.322 h -43.795 c -4.596,0 -8.323,-3.726 -8.323,-8.322 v -2.452 c 0,-3.633 2.336,-6.753 5.632,-7.878 -0.312,-0.463 -0.646,-0.954 -1.001,-1.475 l -0.023,-0.034 -6.861,-10.15 -6.617,8.087 c -0.825,1.022 -1.616,2.107 -2.297,3.09 0.537,0.021 1.119,0.037 1.667,0.037 4.596,0 8.323,3.726 8.323,8.323 v 2.452 c 0,4.596 -3.727,8.322 -8.323,8.322 h -34.52 c -4.596,0 -8.322,-3.726 -8.322,-8.322 v -2.452 c 0,-4.132 3.031,-7.638 7.12,-8.235 2.423,-0.355 4.379,-0.854 5.769,-1.807 2.57,-1.766 6.064,-5.541 10.668,-11.143 l 13.871,-16.913 -19.358,-28.447 c -3.444,-5.067 -5.377,-7.906 -5.863,-8.474 -0.041,-0.048 -0.082,-0.096 -0.122,-0.145 -0.373,-0.456 -0.657,-0.864 -1.016,-1.057 -0.493,-0.266 -1.205,-0.359 -2.077,-0.491 -4.066,-0.62 -7.071,-4.115 -7.071,-8.228 v -2.452 c 0,-4.596 3.727,-8.323 8.323,-8.323 h 44.59 c 2.888,0 5.431,1.47 6.925,3.703 z m -4.802,15.122 0.705,1.063 0.023,0.035 4.907,7.477 2.29,-2.802 c 1.501,-1.843 2.901,-3.913 3.915,-5.5 -0.039,-0.001 -0.077,-0.001 -0.115,-0.001 -2.887,0 -5.431,-1.47 -6.923,-3.702 -1.114,1.665 -2.813,2.906 -4.802,3.43 z m 7.75,26.667 17.028,-20.539 c 4.594,-5.521 7.464,-8.812 8.613,-9.872 1.811,-1.635 3.511,-2.749 5.101,-3.346 1.59,-0.597 3.689,-0.916 6.295,-0.96 v -2.452 h -33.062 v 2.452 c 2.695,0 4.682,0.286 5.963,0.861 1.281,0.574 2.264,1.369 2.949,2.385 0.684,1.015 1.027,2.12 1.027,3.313 0,2.385 -2.429,6.559 -7.288,12.522 l -9.476,11.595 -11.131,-16.961 -4.571,-6.892 c -0.31,-0.706 -0.464,-1.545 -0.464,-2.517 0,-1.237 0.508,-2.264 1.524,-3.081 1.016,-0.817 2.805,-1.225 5.367,-1.225 h 2.252 v -2.452 h -44.59 v 2.452 c 2.031,0.308 3.621,0.772 4.77,1.391 1.149,0.618 2.319,1.656 3.512,3.114 0.53,0.618 2.672,3.688 6.427,9.21 l 22.858,33.592 -17.823,21.732 c -5.3,6.448 -9.43,10.689 -12.389,12.721 -2.253,1.546 -5.346,2.606 -9.277,3.18 v 2.452 h 34.52 v -2.452 c -2.871,0 -4.771,-0.132 -5.698,-0.398 -2.076,-0.485 -3.644,-1.28 -4.704,-2.385 -1.06,-1.103 -1.591,-2.297 -1.591,-3.577 0,-1.811 2.055,-5.257 6.163,-10.336 l 13.714,-16.764 13.119,19.414 c 2.474,3.622 4.02,6.096 4.638,7.421 0.31,0.618 0.464,1.324 0.464,2.119 0,1.149 -0.508,2.121 -1.523,2.916 -1.017,0.795 -3.269,1.325 -6.759,1.59 v 2.452 h 43.795 v -2.452 c -2.385,-0.265 -4.449,-1.049 -6.194,-2.352 -1.745,-1.303 -4.671,-5.002 -8.779,-11.098 z"
   style="fill:#2e3436"
   id="path2987" />
            </g>
        </g>
    </g>
</svg>

<?xml version="1.0" encoding="UTF-8" standalone="no"?>
<!DOCTYPE svg PUBLIC "-//W3C//DTD SVG 1.1//EN" "http://www.w3.org/Graphics/SVG/1.1/DTD/svg11.dtd">
<svg width="100%" height="100%" viewBox="0 0 64 64" version="1.1" xmlns="http://www.w3.org/2000/svg" xmlns:xlink="http://www.w3.org/1999/xlink" xml:space="preserve" xmlns:serif="http://www.serif.com/" style="fill-rule:evenodd;clip-rule:evenodd;">
    <g transform="matrix(2.29751,0,0,2.10229,-108.963,-43.4679)">
        <g>
            <path id="path3057" d="M53.507,27.518L57.187,26.638L57.187,45.718L53.947,45.718C52.107,45.718 51.267,45.798 51.267,47.078C51.267,47.998 51.787,48.478 52.827,48.478L64.507,48.478C65.547,48.478 66.067,47.998 66.067,47.078C66.067,45.798 65.227,45.718 63.387,45.718L60.267,45.718L60.267,24.598C60.267,23.798 59.947,23.318 59.467,23.318C59.227,23.318 58.947,23.358 58.627,23.438L52.827,24.998C51.987,25.238 51.547,25.718 51.547,26.358C51.547,27.078 52.067,27.598 52.907,27.598C53.107,27.598 53.307,27.558 53.507,27.518Z" style="fill:rgb(211,215,207);fill-rule:nonzero;stroke:rgb(46,52,54);stroke-width:0.91px;"/>
            <g transform="matrix(0.0824132,0,0,0.0900661,51.9145,9.81238)">
                <path d="M188.869,189.256L213.649,226.029C217.757,232.125 220.683,235.824 222.428,237.127C224.173,238.43 226.237,239.214 228.622,239.479L228.622,241.931L184.827,241.931L184.827,239.479C188.317,239.214 190.569,238.684 191.586,237.889C192.601,237.094 193.109,236.122 193.109,234.973C193.109,234.178 192.955,233.472 192.645,232.854C192.027,231.529 190.481,229.055 188.007,225.433L174.888,206.019L161.174,222.783C157.066,227.862 155.011,231.308 155.011,233.119C155.011,234.399 155.542,235.593 156.602,236.696C157.662,237.801 159.23,238.596 161.306,239.081C162.233,239.347 164.133,239.479 167.004,239.479L167.004,241.931L132.484,241.931L132.484,239.479C136.415,238.905 139.508,237.845 141.761,236.299C144.72,234.267 148.85,230.026 154.15,223.578L171.973,201.846L149.115,168.254C145.36,162.732 143.218,159.662 142.688,159.044C141.495,157.586 140.325,156.548 139.176,155.93C138.027,155.311 136.437,154.847 134.406,154.539L134.406,152.087L178.996,152.087L178.996,154.539L176.744,154.539C174.182,154.539 172.393,154.947 171.377,155.764C170.361,156.581 169.853,157.608 169.853,158.845C169.853,159.817 170.007,160.656 170.317,161.362L174.888,168.254L186.019,185.215L195.495,173.62C200.354,167.657 202.783,163.483 202.783,161.098C202.783,159.905 202.44,158.8 201.756,157.785C201.071,156.769 200.088,155.974 198.807,155.4C197.526,154.825 195.539,154.539 192.844,154.539L192.844,152.087L225.906,152.087L225.906,154.539C223.3,154.583 221.201,154.902 219.611,155.499C218.021,156.096 216.321,157.21 214.51,158.845C213.361,159.905 210.491,163.196 205.897,168.717L188.869,189.256Z" style="fill:rgb(118,124,113);fill-rule:nonzero;"/>
                <path d="M169.505,198.834L129.737,150.326L148.355,150.775L212.891,244.46L180.948,244.542L185.699,232.868L176.412,209.803L158.793,233.152L169.754,238.043L169.961,244.65L130.834,244.478L131.26,238.015L142.627,231.331L169.505,198.834ZM198.498,162.385L190.666,156.413L190.51,149.717L228.6,149.694L227.432,156.101L219.553,159.645L189.582,190.25L183.913,182.055L198.498,162.385Z" style="fill:rgb(211,215,207);"/>
                <path d="M185.921,147.467C187.413,145.234 189.957,143.764 192.844,143.764L225.906,143.764C230.503,143.764 234.229,147.491 234.229,152.087L234.229,154.539C234.229,159.08 230.588,162.784 226.047,162.86C224.598,162.884 223.418,162.96 222.534,163.292C221.764,163.581 220.999,164.202 220.098,165.014C219.011,166.039 216.433,169.067 212.299,174.036L199.252,189.773L220.55,221.378C223.854,226.279 226.004,229.41 227.408,230.459C228.003,230.903 228.728,231.117 229.542,231.207C233.757,231.675 236.946,235.238 236.946,239.479L236.946,241.931C236.946,246.527 233.219,250.253 228.622,250.253L184.827,250.253C180.231,250.253 176.504,246.527 176.504,241.931L176.504,239.479C176.504,235.846 178.84,232.726 182.136,231.601C181.824,231.138 181.49,230.647 181.135,230.126L181.112,230.092L174.251,219.942L167.634,228.029C166.809,229.051 166.018,230.136 165.337,231.119C165.874,231.14 166.456,231.156 167.004,231.156C171.6,231.156 175.327,234.882 175.327,239.479L175.327,241.931C175.327,246.527 171.6,250.253 167.004,250.253L132.484,250.253C127.888,250.253 124.162,246.527 124.162,241.931L124.162,239.479C124.162,235.347 127.193,231.841 131.282,231.244C133.705,230.889 135.661,230.39 137.051,229.437C139.621,227.671 143.115,223.896 147.719,218.294L161.59,201.381L142.232,172.934C138.788,167.867 136.855,165.028 136.369,164.46C136.328,164.412 136.287,164.364 136.247,164.315C135.874,163.859 135.59,163.451 135.231,163.258C134.738,162.992 134.026,162.899 133.154,162.767C129.088,162.147 126.083,158.652 126.083,154.539L126.083,152.087C126.083,147.491 129.81,143.764 134.406,143.764L178.996,143.764C181.884,143.764 184.427,145.234 185.921,147.467ZM181.119,162.589L181.824,163.652L181.847,163.687L186.754,171.164L189.044,168.362C190.545,166.519 191.945,164.449 192.959,162.862C192.92,162.861 192.882,162.861 192.844,162.861C189.957,162.861 187.413,161.391 185.921,159.159C184.807,160.824 183.108,162.065 181.119,162.589ZM188.869,189.256L205.897,168.717C210.491,163.196 213.361,159.905 214.51,158.845C216.321,157.21 218.021,156.096 219.611,155.499C221.201,154.902 223.3,154.583 225.906,154.539L225.906,152.087L192.844,152.087L192.844,154.539C195.539,154.539 197.526,154.825 198.807,155.4C200.088,155.974 201.071,156.769 201.756,157.785C202.44,158.8 202.783,159.905 202.783,161.098C202.783,163.483 200.354,167.657 195.495,173.62L186.019,185.215L174.888,168.254L170.317,161.362C170.007,160.656 169.853,159.817 169.853,158.845C169.853,157.608 170.361,156.581 171.377,155.764C172.393,154.947 174.182,154.539 176.744,154.539L178.996,154.539L178.996,152.087L134.406,152.087L134.406,154.539C136.437,154.847 138.027,155.311 139.176,155.93C140.325,156.548 141.495,157.586 142.688,159.044C143.218,159.662 145.36,162.732 149.115,168.254L171.973,201.846L154.15,223.578C148.85,230.026 144.72,234.267 141.761,236.299C139.508,237.845 136.415,238.905 132.484,239.479L132.484,241.931L167.004,241.931L167.004,239.479C164.133,239.479 162.233,239.347 161.306,239.081C159.23,238.596 157.662,237.801 156.602,236.696C155.542,235.593 155.011,234.399 155.011,233.119C155.011,231.308 157.066,227.862 161.174,222.783L174.888,206.019L188.007,225.433C190.481,229.055 192.027,231.529 192.645,232.854C192.955,233.472 193.109,234.178 193.109,234.973C193.109,236.122 192.601,237.094 191.586,237.889C190.569,238.684 188.317,239.214 184.827,239.479L184.827,241.931L228.622,241.931L228.622,239.479C226.237,239.214 224.173,238.43 222.428,237.127C220.683,235.824 217.757,232.125 213.649,226.029L188.869,189.256Z" style="fill:rgb(46,52,54);"/>
            </g>
        </g>
    </g>
</svg>
